nextgisweb/ogcfserver/icon/resource/ogcfserver_service.svg

<svg width="16" height="16" viewBox="0 0 16 16" fill="none" xmlns="http://www.w3.org/2000/svg">
<g clip-path="url(#clip0_2320_145)">
<path d="M6.5 13.5V9.5C6.5 8 9 8 9 7L9.076 6.454H12L5.95 0L0 6.454H3.025V13.513L6.5 13.5Z" fill="#00B77E"/>
<path d="M7.31836 9.00048L11.6686 7.22057L15.9795 9.00054L11.6686 10.6217L7.31836 9.00048Z" fill="#106a90"/>
<path d="M11.9062 10.9574L15.9995 9.45459V14.3981L11.9062 15.9998V10.9574Z" fill="#106a90"/>
<path d="M11.4121 10.9574L7.31888 9.45459V14.3981L11.4121 15.9998V10.9574Z" fill="#106a90"/>
</g>
<defs>
<clipPath id="clip0_2320_145">
<rect width="16" height="16" fill="white"/>
</clipPath>
</defs>
</svg>

<svg xmlns="http://www.w3.org/2000/svg" width="16" height="16" fill="none"><g clip-path="url(#a)"><path fill="#00B77E" d="M6.5 13.5v-4C6.5 8 9 8 9 7v-.5h3L6 0 0 6.5h3v7h3.5Z"/><path fill="#106a90" d="m7.3 9 4.4-1.8L16 9l-4.3 1.6L7.3 9Zm4.7 2 4-1.5v4.9L12 16v-5Zm-.6 0-4-1.5v4.9l4 1.6v-5Z"/></g><defs><clipPath id="a"><path fill="#fff" d="M0 0h16v16H0z"/></clipPath></defs></svg>
